X:720
T: Sally's Broomstick
S: B.Breathnach:"Ceol Rince na hEireann" IV/29 (gan ainm)
Z: B.Black
L: 1/8
M: 9/8
R: slipjig
K: Edor
A2A BAG A2G|FGA BGB cAG|FGA BAG A2g|fed ded cAG :|
cde efd e2d|cde fdf ged|cde efd efg|fed ded cAG|
cde efd e2d|cde fdf ged|cde efd efg|a2d ded cAG ||
